X: 40882
T: Tribute To Peadar O'Donnell
R: jig
M: 6/8
K: Adorian
|:A2 e ede|g2{/ag} e edB|A2 e{/f} ede|g.a/ z/ g edB|
A2 e ede|g2{/ag} e edB|ege z{/f} ed|eg{/a}g edB:|
|:A2 c BAG|ADE G2 A|z2 c BAG|AdB{/c} BAG|
A2 c BAG|ADE G2 A|cBB GAA|cBG ABG:|
|:E2 B AGE|z BA Bd z|{/A} BA z GEA|{/A} GEE DEG|
E2 B{/B} AGE|z BA Bd z|{/d} ed z BAG|AGE DEG:|
|:A2 e ede|{/e} g2 e d2 B|gef dec|dBc BAG|
E2 B{/c} AGA|{/c} BAG EFD|E2 B{/B} AGA|BdB d2 e:|
|:A2 c BAG|ADE G2 A|c BBG AA|cBG ABG|
E2 B{/c} AGA|{/c} BAG EFD|E2 B{/B} AGA|1 BdB d2 e:|2 Bde{/e} gfd||
|:e z b age|z ba gea|{/e} fed g2 d|BcA BAG|
E2 B{/B} AGA|BdB edB|ABd ege|fed{/g} afd:|

